crates/ff-filter/tests/fixtures/test_saturate.cube
TITLE "Saturate (1.5x contrast boost, per-channel clamp)"
LUT_3D_SIZE 4
DOMAIN_MIN 0.0 0.0 0.0
DOMAIN_MAX 1.0 1.0 1.0

0.000000 0.000000 0.000000
0.500000 0.000000 0.000000
1.000000 0.000000 0.000000
1.000000 0.000000 0.000000
0.000000 0.500000 0.000000
0.500000 0.500000 0.000000
1.000000 0.500000 0.000000
1.000000 0.500000 0.000000
0.000000 1.000000 0.000000
0.500000 1.000000 0.000000
1.000000 1.000000 0.000000
1.000000 1.000000 0.000000
0.000000 1.000000 0.000000
0.500000 1.000000 0.000000
1.000000 1.000000 0.000000
1.000000 1.000000 0.000000
0.000000 0.000000 0.500000
0.500000 0.000000 0.500000
1.000000 0.000000 0.500000
1.000000 0.000000 0.500000
0.000000 0.500000 0.500000
0.500000 0.500000 0.500000
1.000000 0.500000 0.500000
1.000000 0.500000 0.500000
0.000000 1.000000 0.500000
0.500000 1.000000 0.500000
1.000000 1.000000 0.500000
1.000000 1.000000 0.500000
0.000000 1.000000 0.500000
0.500000 1.000000 0.500000
1.000000 1.000000 0.500000
1.000000 1.000000 0.500000
0.000000 0.000000 1.000000
0.500000 0.000000 1.000000
1.000000 0.000000 1.000000
1.000000 0.000000 1.000000
0.000000 0.500000 1.000000
0.500000 0.500000 1.000000
1.000000 0.500000 1.000000
1.000000 0.500000 1.000000
0.000000 1.000000 1.000000
0.500000 1.000000 1.000000
1.000000 1.000000 1.000000
1.000000 1.000000 1.000000
0.000000 1.000000 1.000000
0.500000 1.000000 1.000000
1.000000 1.000000 1.000000
1.000000 1.000000 1.000000
0.000000 0.000000 1.000000
0.500000 0.000000 1.000000
1.000000 0.000000 1.000000
1.000000 0.000000 1.000000
0.000000 0.500000 1.000000
0.500000 0.500000 1.000000
1.000000 0.500000 1.000000
1.000000 0.500000 1.000000
0.000000 1.000000 1.000000
0.500000 1.000000 1.000000
1.000000 1.000000 1.000000
1.000000 1.000000 1.000000
0.000000 1.000000 1.000000
0.500000 1.000000 1.000000
1.000000 1.000000 1.000000
1.000000 1.000000 1.000000
